X:170
T:Culburnie Cottage
M:C|
L: 1/8
K:D % 2 sharps
fe|d2 AF DFAF|GDGA B2 cB|Aa^ga =gfed|ceAc egfe|\
d2 AF DFAF|GDGA B2 cB|Aa^ga =gecA|d4 d2:||
fg|a2 fa gece|dAFA d2 cd|ecAc eAce|fdba agfg|\
a2 fa gece|dAFA d2 cd|ea^ga =gecA|d4 d2 fg:||\


% <A name="D1X171"></A>
